client/src/shared/assets/icons/alert.svg

<svg width="22" height="22" viewBox="0 0 22 22" fill="none" xmlns="http://www.w3.org/2000/svg">
<path fill-rule="evenodd" clip-rule="evenodd" d="M20.1668 10.9999C20.1668 16.0625 16.0627 20.1666 11.0002 20.1666C5.93755 20.1666 1.8335 16.0625 1.8335 10.9999C1.8335 5.93731 5.93755 1.83325 11.0002 1.83325C16.0627 1.83325 20.1668 5.93731 20.1668 10.9999ZM11.506 6.53742C11.7644 6.53742 11.9716 6.7509 11.9641 7.00919L11.8196 11.9359C11.8123 12.1837 11.6094 12.3809 11.3615 12.3809H10.6429C10.3952 12.3809 10.1922 12.184 10.1848 11.9363L10.0366 7.00953C10.0288 6.75112 10.2362 6.53742 10.4947 6.53742H11.506ZM11.0024 15.6516C10.7123 15.6516 10.4633 15.5492 10.2553 15.3441C10.0473 15.136 9.94471 14.887 9.94765 14.597C9.94471 14.3099 10.0473 14.0638 10.2553 13.8587C10.4633 13.6537 10.7123 13.5511 11.0024 13.5511C11.2807 13.5511 11.5253 13.6537 11.7362 13.8587C11.9472 14.0638 12.0541 14.3099 12.0571 14.597C12.0541 14.7903 12.0028 14.9676 11.9033 15.1288C11.8066 15.2869 11.6791 15.4144 11.5209 15.511C11.3627 15.6048 11.1898 15.6516 11.0024 15.6516Z" fill="#F04848"/>
</svg>

<svg xmlns="http://www.w3.org/2000/svg" fill="currentColor" viewBox="0 0 22 22"><path fill-rule="evenodd" d="M20.167 11a9.167 9.167 0 1 1-18.334 0 9.167 9.167 0 0 1 18.334 0m-8.661-4.463c.258 0 .466.214.458.472l-.144 4.927a.46.46 0 0 1-.459.445h-.718a.46.46 0 0 1-.458-.445l-.148-4.926a.46.46 0 0 1 .458-.473zm-.504 9.115q-.435 0-.747-.308a1 1 0 0 1-.307-.747 1 1 0 0 1 .307-.738q.312-.308.747-.308.418 0 .734.308a1.01 1.01 0 0 1 .167 1.27 1.14 1.14 0 0 1-.382.382 1 1 0 0 1-.519.14" clip-rule="evenodd"/></svg>
